X: 4229
T: RIBBONMEN
R: Jig
%R: jig
B: James Kerr "Merry Melodies" v.4 p.25 #229
Z: 2016 John Chambers <jc:trillian.mit.edu>
M: 6/8
L: 1/8
K: A
|:\
efe cAc | e3  efg | a2e edc | BcB Bcd |\
efe cAc | e3  efg | a2e dcB | BAA A3 :|
|:\
cee efe | cee efe | dff fgf | dff fgf |\
cee efe | cee efg | a2e dcB | BAA A3 :|

%%sep 1 1 500
%%sep 1 1 500

